X: 1469
T: Anderson's
R: reel
M: 4/4
K: Dmajor
|ABdf ecdB|AF F2 EDEF|ABdf efdf|afeg dddB|
ABdf ecdB|AF F2 EDEF|ABdf efdf|afef defg|
aafa bafg|a2 fd edBd|a2 fa bafb|afef defg|
aafa bafb|adfd edBd|AAFA ABdf|afef d2dB|

